rospo-icon-theme-classic-common/64x64/apps/com.github.bartzaalberg.lottery.svg

<svg height="64" width="64" xmlns="http://www.w3.org/2000/svg"><circle cx="32" cy="33" opacity=".2" r="28"/><circle cx="32" cy="32" fill="#c2352a" r="28"/><path d="m32 17.999769a3 3 0 0 0 -3 3 3 3 0 0 0 1.173828 2.376953c-1.538279 2.603459-3.076957 5.20433-4.615234 7.677735-.794092 1.209622-1.984644 1.976562-3.175782 1.976562-4.161207-.02918-4.10252-2.27205-5.847656-4.75a2 2 0 0 0  .464844-1.28125 2 2 0 0 0 -2-2 2 2 0 0 0 -2 2 2 2 0 0 0 1.859375 1.992188l.111328.314453c.79409 3.09125 1.455911 6.450854 2.25 9.945312.132349.537606.5292.941406 1.058594.941406 4.499843.537608 9.133433.806641 13.765625.806641s9.26383-.269033 13.763672-.806641c.397046 0 .793441-.4038.925781-.941406.79409-3.494458 1.45591-6.854062 2.25-9.945312l.107422-.310547a2 2 0 0 0 1.908203-1.996094 2 2 0 0 0 -2-2 2 2 0 0 0 -2 2 2 2 0 0 0  .605469 1.431641c-1.987582 2.213341-2.819644 4.454764-6.164063 4.599609-1.323482 0-2.383644-.766941-3.177734-1.976562-1.520849-2.445378-3.039698-5.01599-4.560547-7.589844a3 3 0 0 0 1.296875-2.464844 3 3 0 0 0 -3-3zm-13.171875 25.003906c-.438495.01763-.828125.42962-.828125.839844v2.460938c0 .58603.381214 1.171858 1.017578 1.289062 8.52727 1.875308 17.437572 1.875308 25.964844 0 .509092-.1172 1.017578-.703033 1.017578-1.289062v-2.460938c0-.586036-.381212-.939474-1.017578-.822266-4.243924.583324-8.582941 1.175039-12.921875 1.177735-4.379244.0028-8.759621-.588991-13.042969-1.177735-.06364-.01465-.126811-.0201-.189453-.01758z" opacity=".2"/><g fill="#ffe15b"><path d="m49.444587 26.965416-.459766 1.34159c-.79409 3.09125-1.455993 6.451308-2.250083 9.945766-.13234.537606-.529392.940814-.926438.940814-4.499842.537608-9.132034.806414-13.764226.806414s-9.264386-.268806-13.764229-.806414c-.529394 0-.926439-.403208-1.058788-.940814-.794089-3.494458-1.456029-6.854516-2.250119-9.945766l-.459765-1.290506c-.926439-.1344-.311054-.583218-.311054-1.524034 0-1.20962-.59913-.32685.592005-.595652 1.191136-.268806 1.245638-.14394 1.245638 1.200068 0 .806414.753512.253084.224119.790692 2.060747 2.630752 1.738119 5.112426 6.120761 5.143164 1.191138 0 2.38227-.766882 3.176362-1.976504 1.588178-2.55364 3.17636-5.241684 4.76454-7.92973-.397046-.537606-.661742-1.209618-.661742-1.88163 0-1.478425.977524-1.800747 2.301008-1.800747 1.191134 0 2.198836.322322 2.198836 1.800747 0 .672012-.264696 1.344024-.661742 1.88163 1.58818 2.688046 3.176362 5.37609 4.764542 7.92973.79409 1.209622 1.852876 1.976504 3.176358 1.976504 3.715116-.1609 4.316379-2.90848 6.861905-5.331332-.529392-.537612-.0747-.08854-.0747-.894956 0-1.344022-.555026-1.212052.636106-.94325 1.191138.268808 1.095876.405642 1.095876 1.615262-.13234.672012.411048.22015-.515404.488954z"/><path d="m46 42.842906c0-.586036-.381816-.937656-1.018182-.820448-4.243924.583324-8.582422 1.174846-12.921356 1.177542-4.379244.0028-8.758932-.588798-13.04228-1.177542-.509092-.1172-1.018182.35162-1.018182.820448v2.461342c0 .58603.381818 1.172068 1.018182 1.289272 8.52727 1.875308 17.436364 1.875308 25.963636 0 .509092-.1172 1.018182-.703242 1.018182-1.289272z"/><circle cx="15" cy="26" r="2"/><circle cx="49" cy="26" r="2"/><circle cx="32" cy="20" r="3"/></g><path d="m32 4a28 28 0 0 0 -28 28 28 28 0 0 0  .0175781.492188 28 28 0 0 1 27.9824219-27.492188 28 28 0 0 1 27.974609 27.492188 28 28 0 0 0  .025391-.492188 28 28 0 0 0 -28-28z" fill="#fff" opacity=".2"/></svg>

<svg xmlns="http://www.w3.org/2000/svg" width="64" height="64" version="1">
 <circle cx="32" cy="33" r="28" style="opacity:0.2"/>
 <circle style="fill:#c2352a" cx="32" cy="32" r="28"/>
 <path style="opacity:0.2" d="m 32,17.999769 a 3,3 0 0 0 -3,3 3,3 0 0 0 1.173828,2.376953 c -1.538279,2.603459 -3.076957,5.20433 -4.615234,7.677735 -0.794092,1.209622 -1.984644,1.976562 -3.175782,1.976562 -4.161207,-0.02918 -4.10252,-2.27205 -5.847656,-4.75 A 2,2 0 0 0 17,26.999769 a 2,2 0 0 0 -2,-2 2,2 0 0 0 -2,2 2,2 0 0 0 1.859375,1.992188 l 0.111328,0.314453 c 0.79409,3.09125 1.455911,6.450854 2.25,9.945312 0.132349,0.537606 0.5292,0.941406 1.058594,0.941406 4.499843,0.537608 9.133433,0.806641 13.765625,0.806641 4.632192,0 9.26383,-0.269033 13.763672,-0.806641 0.397046,0 0.793441,-0.4038 0.925781,-0.941406 0.79409,-3.494458 1.45591,-6.854062 2.25,-9.945312 l 0.107422,-0.310547 A 2,2 0 0 0 51,26.999769 a 2,2 0 0 0 -2,-2 2,2 0 0 0 -2,2 2,2 0 0 0 0.605469,1.431641 c -1.987582,2.213341 -2.819644,4.454764 -6.164063,4.599609 -1.323482,0 -2.383644,-0.766941 -3.177734,-1.976562 -1.520849,-2.445378 -3.039698,-5.01599 -4.560547,-7.589844 A 3,3 0 0 0 35,20.999769 a 3,3 0 0 0 -3,-3 z M 18.828125,43.003675 C 18.38963,43.021305 18,43.433295 18,43.843519 l 0,2.460938 c 0,0.58603 0.381214,1.171858 1.017578,1.289062 8.52727,1.875308 17.437572,1.875308 25.964844,0 C 45.491514,47.476319 46,46.890486 46,46.304457 l 0,-2.460938 c 0,-0.586036 -0.381212,-0.939474 -1.017578,-0.822266 -4.243924,0.583324 -8.582941,1.175039 -12.921875,1.177735 -4.379244,0.0028 -8.759621,-0.588991 -13.042969,-1.177735 -0.06364,-0.01465 -0.126811,-0.0201 -0.189453,-0.01758 z"/>
 <path style="fill:#ffe15b" d="m 49.444587,26.965416 -0.459766,1.34159 c -0.79409,3.09125 -1.455993,6.451308 -2.250083,9.945766 -0.13234,0.537606 -0.529392,0.940814 -0.926438,0.940814 C 41.308458,39.731194 36.676266,40 32.044074,40 l 0,0 c -4.632192,0 -9.264386,-0.268806 -13.764229,-0.806414 -0.529394,0 -0.926439,-0.403208 -1.058788,-0.940814 -0.794089,-3.494458 -1.456029,-6.854516 -2.250119,-9.945766 L 14.511173,27.0165 c -0.926439,-0.1344 -0.311054,-0.583218 -0.311054,-1.524034 0,-1.20962 -0.59913,-0.32685 0.592005,-0.595652 1.191136,-0.268806 1.245638,-0.14394 1.245638,1.200068 0,0.806414 0.753512,0.253084 0.224119,0.790692 C 18.322628,29.518326 18,32 22.382642,32.030738 c 1.191138,0 2.38227,-0.766882 3.176362,-1.976504 1.588178,-2.55364 3.17636,-5.241684 4.76454,-7.92973 -0.397046,-0.537606 -0.661742,-1.209618 -0.661742,-1.88163 0,-1.478425 0.977524,-1.800747 2.301008,-1.800747 1.191134,0 2.198836,0.322322 2.198836,1.800747 0,0.672012 -0.264696,1.344024 -0.661742,1.88163 l 0,0 c 1.58818,2.688046 3.176362,5.37609 4.764542,7.92973 0.79409,1.209622 1.852876,1.976504 3.176358,1.976504 3.715116,-0.1609 4.316379,-2.90848 6.861905,-5.331332 -0.529392,-0.537612 -0.0747,-0.08854 -0.0747,-0.894956 0,-1.344022 -0.555026,-1.212052 0.636106,-0.94325 1.191138,0.268808 1.095876,0.405642 1.095876,1.615262 -0.13234,0.672012 0.411048,0.22015 -0.515404,0.488954 z"/>
 <path style="fill:#ffe15b" d="M 46,42.842906 C 46,42.25687 45.618184,41.90525 44.981818,42.022458 40.737894,42.605782 36.399396,43.197304 32.060462,43.2 27.681218,43.2028 23.30153,42.611202 19.018182,42.022458 18.50909,41.905258 18,42.374078 18,42.842906 l 0,2.461342 c 0,0.58603 0.381818,1.172068 1.018182,1.289272 8.52727,1.875308 17.436364,1.875308 25.963636,0 C 45.49091,46.47632 46,45.890278 46,45.304248 Z"/>
 <circle style="fill:#ffe15b" cx="15" cy="26" r="2"/>
 <circle cx="49" cy="26" r="2" style="fill:#ffe15b"/>
 <circle style="fill:#ffe15b" cx="32" cy="20" r="3"/>
 <path style="opacity:0.2;fill:#ffffff" d="M 32 4 A 28 28 0 0 0 4 32 A 28 28 0 0 0 4.0175781 32.492188 A 28 28 0 0 1 32 5 A 28 28 0 0 1 59.974609 32.492188 A 28 28 0 0 0 60 32 A 28 28 0 0 0 32 4 z"/>
</svg>
